22x22/panel/acestream-tray.svg

<svg xmlns="http://www.w3.org/2000/svg" width="22" height="22" version="1.1">
 <defs>
  <style id="current-color-scheme" type="text/css">
   .ColorScheme-Text { color:#323a41; } .ColorScheme-Highlight { color:#4285f4; } .ColorScheme-NeutralText { color:#ff9800; } .ColorScheme-PositiveText { color:#4caf50; } .ColorScheme-NegativeText { color:#f44336; }
  </style>
 </defs>
 <path style="fill:currentColor" class="ColorScheme-Text" d="M 11 3 L 11 5 A 6 6 0 0 1 16.189453 8.0039062 L 17.923828 7.0039062 A 8.0053718 7.9999998 0 0 0 17.878906 6.9277344 A 8.0053718 7.9999998 0 0 0 11 3 z M 4.0761719 7.0058594 A 8.0053718 7.9999998 0 0 0 4.03125 7.0820312 A 8.0053718 7.9999998 0 0 0 4.0664062 15 L 5.8085938 13.994141 A 6 6 0 0 1 5 11 A 6 6 0 0 1 5.8066406 8.0039062 L 4.0761719 7.0058594 z M 9 7.625 L 9 11 L 9 14.375 L 11.4375 12.6875 L 13.875 11 L 11.4375 9.3125 L 9 7.625 z M 16.191406 13.996094 A 6 6 0 0 1 11 17 L 11 19 A 8.0053718 7.9999998 0 0 0 17.878906 15.072266 A 8.0053718 7.9999998 0 0 0 17.923828 14.996094 L 16.191406 13.996094 z"/>
 <path style="opacity:0.3;fill:currentColor" class="ColorScheme-Text" d="M 11 3 A 8.0053718 7.9999998 0 0 0 4.1210938 6.9277344 A 8.0053718 7.9999998 0 0 0 4.0761719 7.0039062 L 5.8085938 8.0039062 A 6 6 0 0 1 11 5 L 11 3 z M 17.933594 7 L 16.191406 8.0058594 A 6 6 0 0 1 17 11 A 6 6 0 0 1 16.193359 13.996094 L 17.923828 14.994141 A 8.0053718 7.9999998 0 0 0 17.96875 14.917969 A 8.0053718 7.9999998 0 0 0 17.933594 7 z M 5.8105469 13.996094 L 4.0761719 14.996094 A 8.0053718 7.9999998 0 0 0 4.1210938 15.072266 A 8.0053718 7.9999998 0 0 0 11 19 L 11 17 A 6 6 0 0 1 5.8105469 13.996094 z"/>
</svg>

<svg xmlns="http://www.w3.org/2000/svg" width="22" height="22"><defs><style id="current-color-scheme" type="text/css">.ColorScheme-Text{color:#323a41}</style></defs><path style="fill:currentColor" class="ColorScheme-Text" d="M11 3v2a6 6 0 0 1 5.19 3.004l1.734-1a8.005 8 0 0 0-.045-.076A8.005 8 0 0 0 11 3zM4.076 7.006a8.005 8 0 0 0-.045.076A8.005 8 0 0 0 4.066 15l1.743-1.006A6 6 0 0 1 5 11a6 6 0 0 1 .807-2.996l-1.73-.998zM9 7.625v6.75l2.438-1.688L13.874 11l-2.438-1.688L9 7.625zm7.191 6.371A6 6 0 0 1 11 17v2a8.005 8 0 0 0 6.879-3.928 8.005 8 0 0 0 .045-.076l-1.733-1z"/><path style="opacity:.3;fill:currentColor" class="ColorScheme-Text" d="M11 3a8.005 8 0 0 0-6.879 3.928 8.005 8 0 0 0-.045.076l1.733 1A6 6 0 0 1 11 5V3zm6.934 4L16.19 8.006A6 6 0 0 1 17 11a6 6 0 0 1-.807 2.996l1.73.998a8.005 8 0 0 0 .046-.076A8.005 8 0 0 0 17.934 7zM5.81 13.996l-1.735 1a8.005 8 0 0 0 .045.076A8.005 8 0 0 0 11 19v-2a6 6 0 0 1-5.19-3.004z"/></svg>
